img/home.svg

<svg fill="none" height="16" viewBox="0 0 16 16" width="16" xmlns="http://www.w3.org/2000/svg"><path d="m1.3665 7.16244c-.799609.7996-.23329 2.1668.89752 2.1668h.93217v4.32596c0 .701.56828 1.2693 1.26928 1.2693h2.32768v-3.1972h2.39795v3.1972h2.3276c.701 0 1.2693-.5683 1.2693-1.2693v-4.32596h.9324c1.1308 0 1.6971-1.3672.8975-2.1668l-5.72819-5.72817c-.49569-.495691-1.29935-.495692-1.79504-.00001z" fill="#008699"/></svg>

<svg width="16" height="16" viewBox="0 0 16 16" fill="none" xmlns="http://www.w3.org/2000/svg">
<path d="M1.3665 7.16244C0.566891 7.96204 1.13321 9.32924 2.26402 9.32924H3.19619V13.6552C3.19619 14.3562 3.76447 14.9245 4.46547 14.9245H6.79315V11.7273H9.1911V14.9245H11.5187C12.2197 14.9245 12.788 14.3562 12.788 13.6552V9.32924H13.7204C14.8512 9.32924 15.4175 7.96204 14.6179 7.16244L8.88971 1.43427C8.39402 0.938579 7.59036 0.938578 7.09467 1.43426L1.3665 7.16244Z" fill="#008699"/>
</svg>
